X:1
T:Ånonpolka
R:Polka
Z:Anton Teljebäck 2009-09-02
O:Norge
M:2/4
L:1/8
K:A
f/g/ | af df|ec AB/c/ | dB =GB | Ac ef/g/ |af df|ec AB/c/ | dB =GB |A2A2:|
|: cA d2 | dA =c2 | BA =GB | A^c e2 | a=g a2 | ae f2 | ed B=G | A2 A2 :|

